X: 798
T: Lihuen
%%abc-version 2.0
%%abcx-abcm2ps-target-version 5.9.1 (29 Sep 2008)
%%abc-creator hum2abc beta
%%abcx-conversion-date 2013/10/02 07:52:31
%%abc-edited-by Helmut Schaffrath
%%humdrum-veritas 4251409408
%%humdrum-veritas-data 764538342
%%continueall 1
%%barnumbers 0
L: 1/16
M: 2/4
K: G
d2 e d B2 A2 [I:setbarnb 1]| 
d2 e d B2 A2 | 
d2 d2 B d B A | 
G G2 BA4 | 
A2 B2d4 | 
A2 B AG4 | 
B2 A B D2 G2 | 
A G E GD4 | 
A2 A2 B2 G2 | 
A2> B2A4 | 
B2 A B D2 G2 | 
A G E GD4 |]  



